X:166
T:RVW2/2/166 'Twas On A Sunday Morning
C:Mr. Earle, Leith Hill, Surrey, September - October 1904
L:1/8
Q:1/4=120
M:6/8
I:linebreak $
K:C
"^(Editorial suggestion) " d | c2 B G2 G | (d2 e) f2 A | c2 B G2 G | G3 z z G |$ B2 c (de)f | 
w: 'Twas|on one Sun- day|mor- * ning be-|fore the bells did|peal a|note came through _ my|
(g2 e) c2 d | e2 g f2 e | d3 z z G |$ B2 c d2 d | (g2 e) c2 d | e2 g f2 e | d3 z z d |$ 
w: win- * dow with|Cu- pid for its|seal and|soon I heard a|whis- * per as|soft as se- raphs|sing 'Twas|
c2 B G2 G | (d2 e) f2 d | c2 B G2 F | G2 z z2 |] 
w: on a Sun- day|morn- * ing be-|fore the bells did|ring.|



